public/images/pages/home/hearts/enough.svg

<svg width="139" height="119" viewBox="0 0 139 119" fill="none" xmlns="http://www.w3.org/2000/svg">
<path d="M63.2656 33.39C46.6915 14.1278 40.5681 15.4518 33.4432 13.3C29.7431 10.8139 21.181 11.6494 13.0778 17.1858C1.61808 25.0153 5.92312 50.153 5.92312 50.153L17.727 73.6771C17.727 73.6771 87.8695 75.0007 124.502 69.5271C130.771 45.1882 130.416 23.8448 119.041 13.566C109.459 4.90829 103.776 9.11614 95.3588 10.7415C73.848 14.8954 63.7627 36.2392 63.2656 33.39Z" fill="white"/>
<path d="M72.8409 65.0937C50.7363 57.5867 42.4459 59.0826 30.4173 60.2567C20.9947 63.2473 10.8711 55.3759 12.1157 63.0862C17.0712 70.8507 20.1455 77.1384 20.1455 77.1384L30.4173 88.6812C30.4173 88.6812 41.7778 111.957 77.2909 110.217C130.555 85.67 127.544 55.5583 127.544 55.5583C127.544 55.5583 118.481 52.5104 109.979 52.0453C88.6774 54.1243 88.5045 66.3262 72.8409 65.0937Z" fill="#FF4D4F"/>
<path d="M128.766 60.3964C125.411 74.5743 118.126 82.4277 108.966 91.5868C99.5766 102.775 87.6034 111.036 74.0432 112.162C48.8502 114.253 10.757 79.4295 3.78049 46.7969C4.78421 44.9954 6.20565 46.7776 6.58179 48.1669C15.5222 81.1908 48.7059 108.767 73.7738 109.402C87.2419 108.285 97.2397 99.6885 106.88 89.7361C115.391 80.9371 120.791 76.0524 125.908 60.1454C126.021 58.7044 128.879 58.9643 128.766 60.3964Z" fill="black"/>
<path d="M125.263 63.2898C143.3 -15.5081 79.2754 9.17368 67.7227 35.0466C52.4126 7.78023 -2.90403 -0.211332 6.68143 49.1843C5.78267 50.3116 3.87836 47.7958 3.87836 47.7958C-4.90521 0.335251 48.4213 1.93009 67.2317 30.0161C81.7968 5.46138 144.144 -16.6177 128.868 60.283C128.577 61.7483 126.346 64.2417 125.263 63.2898Z" fill="black"/>
<path d="M87.3357 87.3154C98.577 82.5692 105.887 76.6458 110.662 61.1211C111.584 60.2835 113.384 62.8736 112.468 63.7064C109.394 76.2963 101.315 85.4521 88.6692 90.1217C87.5269 90.6039 86.1935 87.7976 87.3357 87.3154Z" fill="black"/>
</svg>

<svg xmlns="http://www.w3.org/2000/svg" fill="none" viewBox="0 0 139 119">
  <defs/>
  <path fill="#fff" d="M63.266 33.39C46.69 14.128 40.568 15.452 33.443 13.3c-3.7-2.486-12.262-1.65-20.365 3.886-11.46 7.83-7.155 32.967-7.155 32.967l11.804 23.524s70.142 1.324 106.775-4.15c6.269-24.339 5.914-45.682-5.461-55.961-9.582-8.658-15.265-4.45-23.682-2.825C73.848 14.896 63.763 36.24 63.266 33.39z"/>
  <path fill="#FF4D4F" d="M72.84 65.094c-22.104-7.507-30.394-6.011-42.423-4.837-9.422 2.99-19.546-4.881-18.301 2.83 4.955 7.764 8.03 14.051 8.03 14.051l10.271 11.543s11.36 23.276 46.874 21.536c53.264-24.547 50.253-54.659 50.253-54.659s-9.063-3.048-17.565-3.513c-21.302 2.08-21.475 14.281-37.138 13.049z"/>
  <path fill="#000" d="M128.766 60.396c-3.355 14.178-10.64 22.032-19.8 31.19-9.39 11.189-21.363 19.45-34.923 20.576C48.85 114.253 10.757 79.429 3.78 46.797c1.004-1.802 2.426-.02 2.802 1.37 8.94 33.024 42.124 60.6 67.192 61.235 13.468-1.117 23.466-9.713 33.106-19.666 8.511-8.799 13.911-13.684 19.028-29.59.113-1.442 2.971-1.182 2.858.25z"/>
  <path fill="#000" d="M125.263 63.29C143.3-15.508 79.275 9.174 67.723 35.047 52.413 7.78-2.904-.211 6.68 49.184c-.898 1.128-2.803-1.388-2.803-1.388C-4.905.336 48.421 1.93 67.232 30.016c14.565-24.555 76.912-46.634 61.636 30.267-.291 1.465-2.522 3.959-3.605 3.007z"/>
  <path fill="#000" d="M87.336 87.315c11.241-4.746 18.551-10.67 23.326-26.194.922-.838 2.722 1.753 1.806 2.585-3.074 12.59-11.153 21.746-23.799 26.416-1.142.482-2.475-2.324-1.333-2.807z"/>
</svg>
